packages/tools/pie-icons/src/assets/cash-filled-large.svg

<svg width="32" height="32" viewBox="0 0 32 32" fill="none" xmlns="http://www.w3.org/2000/svg">
<path d="M18.4412 16.4636C18.38 16.4636 18.31 16.4636 18.2487 16.4811C18.0037 16.5336 17.7937 16.6736 17.6537 16.8836C17.5137 17.0936 17.47 17.3474 17.5225 17.5924C17.575 17.8374 17.715 18.0474 17.925 18.1874C18.135 18.3274 18.3887 18.3711 18.625 18.3186C18.87 18.2661 19.08 18.1261 19.22 17.9161C19.36 17.7061 19.4037 17.4524 19.3512 17.2074C19.255 16.7699 18.87 16.4636 18.4325 16.4636H18.4412Z" fill="#242E30"/>
<path d="M8.01134 12.6663C10.4526 11.24 13.2526 10.4875 16.1138 10.4875C16.6913 10.4875 17.2776 10.5225 17.8551 10.5838C18.2401 10.6275 18.6251 10.645 19.0101 10.645C20.0776 10.645 21.1188 10.47 22.1338 10.1725L20.1038 6.29623C19.9726 6.05123 19.7276 5.87623 19.4563 5.83248C19.1763 5.79748 18.8963 5.88498 18.7038 6.08623C16.8576 8.00248 14.3901 9.28873 11.7651 9.72623C8.75509 10.225 5.92884 11.7038 3.82009 13.8825C3.55759 14.1538 3.49634 14.565 3.67134 14.8975L7.67009 22.5275C7.80134 22.7725 8.04634 22.9475 8.31759 22.9913C8.33509 22.9913 8.34384 22.9913 8.36134 22.9913L6.76884 15.475C6.53259 14.3638 7.03134 13.235 8.01134 12.6663Z" fill="#242E30"/>
<path d="M28.4163 19.6924L26.6313 11.2574C26.605 11.1174 26.5438 10.9949 26.4563 10.8899C26.4475 10.8724 26.4213 10.8724 26.4125 10.8549C26.3338 10.7674 26.2463 10.6886 26.1325 10.6361C26.01 10.5836 25.8788 10.5574 25.7475 10.5661C25.73 10.5661 25.7213 10.5661 25.7038 10.5661C25.5813 10.5749 25.45 10.6099 25.3363 10.6711C25.3363 10.6711 25.3363 10.6711 25.3275 10.6711C24.9688 10.8811 24.6013 11.0649 24.225 11.2311C24.1988 11.2399 24.1725 11.2574 24.1463 11.2661C22.5363 11.9836 20.7863 12.3686 19.0188 12.3686C18.5725 12.3686 18.1175 12.3424 17.6713 12.2986C17.155 12.2461 16.6388 12.2111 16.1225 12.2111C13.5938 12.2111 11.0738 12.8849 8.90376 14.1536C8.58001 14.3461 8.41376 14.7224 8.49251 15.0899L10.2775 23.5161C10.3388 23.7874 10.5225 24.0236 10.7763 24.1374C10.89 24.1899 11.0125 24.2161 11.1263 24.2161C11.275 24.2161 11.4325 24.1724 11.5638 24.0936C11.59 24.0761 11.6075 24.0674 11.6338 24.0586C11.8788 23.9186 12.1238 23.7874 12.3688 23.6649C12.4738 23.6124 12.57 23.5686 12.675 23.5249C12.85 23.4461 13.0338 23.3674 13.2175 23.2886C13.3313 23.2449 13.445 23.2011 13.5675 23.1574C13.7425 23.0961 13.9263 23.0349 14.11 22.9736C14.2238 22.9386 14.3375 22.9036 14.46 22.8686C14.6613 22.8161 14.8538 22.7636 15.055 22.7199C15.1513 22.6936 15.2563 22.6674 15.3525 22.6499C15.65 22.5886 15.9563 22.5361 16.2538 22.4924C16.2888 22.4924 16.3238 22.4924 16.3588 22.4836C16.63 22.4486 16.9013 22.4224 17.1725 22.4136C17.2688 22.4136 17.3738 22.4136 17.47 22.4049C17.61 22.4049 17.75 22.3874 17.89 22.3874C17.9338 22.3874 17.9863 22.3874 18.03 22.3874C18.4325 22.3874 18.8438 22.4136 19.2463 22.4574C19.7013 22.5099 20.165 22.5274 20.62 22.5361C20.8388 22.5361 21.0575 22.5361 21.2675 22.5361C21.3813 22.5361 21.4863 22.5361 21.6 22.5274C21.9325 22.5099 22.265 22.4749 22.5975 22.4399C22.615 22.4399 22.6325 22.4399 22.6413 22.4399C22.9913 22.3961 23.3325 22.3349 23.6825 22.2649C23.7875 22.2474 23.8925 22.2124 23.9888 22.1949C24.225 22.1424 24.47 22.0811 24.7063 22.0111C24.8288 21.9761 24.9425 21.9411 25.065 21.9061C25.2838 21.8361 25.5113 21.7661 25.7213 21.6786C25.835 21.6349 25.9575 21.5911 26.0713 21.5474C26.2988 21.4599 26.5263 21.3549 26.7538 21.2499C26.85 21.2061 26.9463 21.1624 27.0425 21.1186C27.3575 20.9611 27.6725 20.8036 27.9788 20.6199C28.3025 20.4274 28.4688 20.0511 28.39 19.6836L28.4163 19.6924ZM12.3863 18.9574L11.8438 17.2949C12.6663 17.0324 13.515 16.8399 14.3638 16.7261L14.5913 18.4586C13.8475 18.5549 13.095 18.7299 12.3775 18.9574H12.3863ZM20.6988 18.8699C20.305 19.4736 19.7013 19.8849 19.0013 20.0336C18.8175 20.0774 18.625 20.0949 18.4413 20.0949C17.925 20.0949 17.4263 19.9461 16.98 19.6574C16.3763 19.2636 15.965 18.6599 15.8163 17.9599C15.6675 17.2599 15.7988 16.5424 16.1925 15.9386C16.5863 15.3349 17.19 14.9236 17.89 14.7749C19.3338 14.4686 20.7688 15.3961 21.075 16.8486C21.2238 17.5486 21.0925 18.2661 20.6988 18.8699ZM22.51 18.1436L22.2738 16.4111C23.0263 16.3149 23.77 16.1399 24.4875 15.9124L25.03 17.5749C24.2163 17.8374 23.3675 18.0299 22.51 18.1436Z" fill="#242E30"/>
</svg>

<svg width="32" height="32" viewBox="0 0 32 32" fill="none" xmlns="http://www.w3.org/2000/svg">
  <path fill="#242E30" d="M18.441 16.464c-.061 0-.131 0-.192.017a.944.944 0 0 0-.595.403.922.922 0 0 0-.131.709.944.944 0 0 0 .402.595c.21.14.464.183.7.13a.944.944 0 0 0 .595-.402.922.922 0 0 0 .131-.709.944.944 0 0 0-.918-.743h.008ZM8.011 12.666a16.065 16.065 0 0 1 9.844-2.082c.385.043.77.061 1.155.061 1.068 0 2.109-.175 3.124-.473l-2.03-3.876a.908.908 0 0 0-.648-.463.882.882 0 0 0-.752.253 12.558 12.558 0 0 1-6.939 3.64 14.415 14.415 0 0 0-7.945 4.156.877.877 0 0 0-.149 1.016l4 7.63c.13.245.375.42.647.463h.043L6.77 15.475a2.61 2.61 0 0 1 1.242-2.809Z"/>
  <path fill="#242E30" d="m28.416 19.692-1.785-8.434a.799.799 0 0 0-.175-.368c-.008-.018-.035-.018-.043-.035a.865.865 0 0 0-.28-.219.838.838 0 0 0-.386-.07h-.043a.932.932 0 0 0-.368.105h-.008c-.36.21-.727.394-1.103.56-.026.009-.053.027-.079.035a12.62 12.62 0 0 1-6.475 1.033 15.313 15.313 0 0 0-1.549-.088c-2.528 0-5.048.674-7.218 1.943a.877.877 0 0 0-.411.936l1.784 8.426a.897.897 0 0 0 .5.622.846.846 0 0 0 .35.078.869.869 0 0 0 .437-.122.262.262 0 0 1 .07-.035c.245-.14.49-.271.735-.394.105-.052.201-.096.306-.14.175-.079.359-.157.542-.236.114-.044.228-.088.35-.132l.543-.183c.114-.035.228-.07.35-.105.201-.053.394-.105.595-.149.096-.026.201-.052.297-.07.298-.061.604-.114.902-.157.035 0 .07 0 .105-.01.271-.034.542-.06.813-.07.097 0 .202 0 .298-.008.14 0 .28-.018.42-.018h.14c.402 0 .814.027 1.216.07.455.053.919.07 1.374.08h.647c.114 0 .22 0 .333-.01.332-.017.665-.052.997-.087h.044c.35-.044.692-.105 1.042-.175.105-.018.21-.053.306-.07.236-.053.481-.114.717-.184l.359-.105c.219-.07.446-.14.656-.227.114-.044.236-.088.35-.131.228-.088.455-.193.683-.298l.288-.131c.316-.158.63-.315.937-.499a.877.877 0 0 0 .411-.936l.026.008Zm-16.03-.735-.542-1.662a14.776 14.776 0 0 1 2.52-.569l.227 1.733c-.743.096-1.496.271-2.213.498h.008Zm8.313-.087A2.677 2.677 0 0 1 19 20.034a2.438 2.438 0 0 1-.56.061 2.67 2.67 0 0 1-1.461-.438 2.677 2.677 0 0 1-1.164-1.697 2.66 2.66 0 0 1 .376-2.021 2.677 2.677 0 0 1 1.698-1.164 2.691 2.691 0 0 1 3.185 2.074 2.66 2.66 0 0 1-.376 2.021Zm1.811-.726-.236-1.733a12.666 12.666 0 0 0 2.213-.499l.543 1.663a14.4 14.4 0 0 1-2.52.569Z"/>
</svg>
